X:3830
T:Myrslttern
A:Hrjedalen
C:e. Olof Jnsson
D:Hrjedalspipan
D:More Happy Moments with Hoven Droven
M:4/4
O:Sweden
R:Halling
R:March
Z:Richard Robinson 
%%TUNEURL: http://www.leeds.ac.uk/music/Info/RRTuneBk/gettune/00000c76.html
%%ID:00000c76
K:A dorian
A2 cd e2 ga | ba ag e3c | A2 cd e2 ga | ba ag e4 ||
|:[M:5/4](3efg af fd df df |[M:4/4] fe ec Ac Ae | ed Bc A4:|
